X:411
T: Im Ungarland zu Groáwardein (5-6), S. 16
N: P0681
O: Lothringen
S: MERKELBACH-PINCK, Angelika: Verklingende Weisen, Bd 5, Kassel 1962]
R: geistliches, religiöses Lied]
M: 6/4
L: 1/8
K: D
=C2C2C2 | A6A2A2G=F | G6
=C2E2G2 | A6A2G2=F2 | E4
G4A2=F2 | D6=C2=F2G2 | A6
A2_B2A2 | G2_B2A2G2=F2E2 | D4z2

